X:1
T:No.45 Mick Carr's Barndance
C:barndance
M:4/4
L:1/8
K:D
D2 F>A d2 d>B|c>B A>A B>A A2|A,2 C>E A>A A>d|
B>A ^G>B (3ABA (3=GFE|D2 F>A d2 d>B|c>B A>A B>A A2|
A,2 C>E A>A A>d|(3cBA (3GFE D2 A,2:|
D<F A>d f2 f2|a>f d>B A2 A2|D>F A>d c2 c>A|
B>A ^G>B (3ABA (3=GFE|D<F A>d f2 f2 |a>f d>B A2 A2|
D>F A>d c2 c>B|(3ABA (3GFE D2 A,2:|
